!!!COM: Palestrina, Giovanni Perluigi da
!!!OPR: Missa Dum complerentur
!!!OMD: Sanctus
!!!OTL: Pleni
**kern	**kern	**kern	**kern
*Ibass	*Itenor	*Icalto	*Icalto
!Bassus	!Tenor	!Altus 2	!Altus 1
*clefF4	*clefGv2	*clefG2	*clefG2
*k[b-]	*k[b-]	*k[b-]	*k[b-]
*F:ion	*F:ion	*F:ion	*F:ion
*M4/2	*M4/2	*M4/2	*M4/2
=37	=37	=37	=37
1r	1c	0r	0r
1F	[1f	.	.
=38	=38	=38	=38
2A	2f]	0r	0r
2B-	2d	.	.
1c	1e	.	.
=39	=39	=39	=39
2A	2.c	0r	0r
2.c	.	.	.
.	4d	.	.
.	1e	.	.
4B-	.	.	.
4A	.	.	.
4G	.	.	.
=40	=40	=40	=40
4F	2.f	1r	0r
4E	.	.	.
4D	.	.	.
4C	4e	.	.
2BB-	4d	1f	.
.	4c	.	.
[2B-	4B-	.	.
.	4A	.	.
=41	=41	=41	=41
4B-]	2G	1.b-	0r
4A	.	.	.
4G	2.d	.	.
4F	.	.	.
1G	.	.	.
.	4c	.	.
.	4d	2g	.
.	4e	.	.
=42	=42	=42	=42
1.F	2.f	1a	2r
.	.	.	2f
.	4e	.	.
.	4d	2.f	2a
.	4c	.	.
2D	[2f	.	2b-
.	.	4g	.
=43	=43	=43	=43
1C	2f]	2a	1cc
.	2e	2g	.
1r	[1f	2.cc	2a
.	.	.	[2cc
.	.	4b-	.
=44	=44	=44	=44
0r	1f]	4a	4cc]
.	.	4g	4b-
.	.	4f	4a
.	.	4e	4g
.	1r	4d	4f
.	.	4e	4e
.	.	4f	4d
.	.	4g	4e
=45	=45	=45	=45
0r	1F	4a	4f
.	.	4b-	4g
.	.	1cc	2.a
.	2A	.	.
.	.	.	4g
.	2B-	4b-	[2f
.	.	4a	.
=46	=46	=46	=46
1C	1c	1g	2f]
.	.	.	2e
[1F	2.A	2c	1f
.	.	2f	.
.	4B-	.	.
=47	=47	=47	=47
2F]	2c	2a	1r
2D	2d	2b-	.
2E	4c	1cc	2r
.	4B-	.	.
[2F	4A	.	2c
.	4G	.	.
=48	=48	=48	=48
4F]	0F	1.a	1.f
4E	.	.	.
4D	.	.	.
4C	.	.	.
1D	.	.	.
.	.	2b-	2d
=49	=49	=49	=49
0C	2G	2cc	1e
.	4c	2.g	.
.	4d	.	.
.	4e	.	2.c
.	4f	4f	.
.	[2g	4e	.
.	.	4d	4d
=50	=50	=50	=50
2r	4g]	0c	2e
.	4e	.	.
4F	1a	.	1f
4G	.	.	.
4A	.	.	.
4B-	.	.	.
[2c	4g	.	4e
.	4f	.	4d
=51	=51	=51	=51
2c]	2e	2r	2c
2B-	2.d	2.g	2d
1A	.	.	2e
.	4c	4g	.
.	[2c	2f	2c
=52	=52	=52	=52
1G	2c]	2.g	1d
.	2B	.	.
.	.	4f	.
2r	1c	4e	1g
.	.	4d	.
[2c	.	[2e	.
=53	=53	=53	=53
4c]	2.g	4e]	0r
4c	.	4c	.
2B	.	2d	.
.	4g	.	.
4c	2g	1e	.
4B-	.	.	.
4A	[2a	.	.
4G	.	.	.
=54	=54	=54	=54
4F	2a]	2f	2r
4E	.	.	.
4D	2f	1a	2.cc
4C	.	.	.
1D	2r	.	.
.	.	.	4cc
.	[2f	4g	2b
.	.	4f	.
=55	=55	=55	=55
1C	4f]	1g	2.cc
.	4f	.	.
.	2e	.	.
.	.	.	4b-
1r	4f	1r	4a
.	4e	.	4g
.	4d	.	4f
.	4c	.	4e
=56	=56	=56	=56
0r	4B-	2r	4d
.	4A	.	4c
.	4A	2.cc	2f
.	8G	.	.
.	8F	.	.
.	1G	.	2e
.	.	4cc	.
.	.	2b	2d
=57	=57	=57	=57
1r	0A	4cc	0c
.	.	4b-	.
.	.	4a	.
.	.	4g	.
2r	.	4f	.
.	.	4e	.
[2c	.	4e	.
.	.	8d	.
.	.	8c	.
=58	=58	=58	=58
4c]	1G	1d	2.g
4c	.	.	.
2B	.	.	.
.	.	.	4f
4c	1r	[1c	4e
4B-	.	.	4d
4A	.	.	4c
4G	.	.	4B-
=59	=59	=59	=59
4F	0r	1c]	4A
4E	.	.	4G
4D	.	.	1c
4C	.	.	.
1D	.	2r	.
.	.	[2f	2B
=60	=60	=60	=60
1C	1r	4f]	2c
.	.	4f	.
.	.	2e	2g
[1F	2r	4f	2a
.	.	4g	.
.	[2f	4a	4cc
.	.	4b-	4b-
=61	=61	=61	=61
2F]	4f]	2.cc	4a
.	4f	.	4f
2C	2e	.	2g
.	.	4b-	.
[1D	4f	4a	[1f
.	4e	4g	.
.	4d	4f	.
.	4c	4e	.
=62	=62	=62	=62
1D]	4B-	4d	2f]
.	4A	4e	.
.	4G	1f	2B-
.	4F	.	.
1C	1G	.	1c
.	.	2e	.
=63	=63	=63	=63
0F	0A	0f	0c
*-	*-	*-	*-
!!!CDT: 1525/^1526/-1594/2/2
!!!OCY: Italia
!!!AGN: Mass (Parody)
!!!AST: renaissance, vocal
!!!ASW: Motet 1569 (Palestrina)
!!!PWK: Masses, Book 8
!!!RNB: Cadence finals: C
!!!YOR: Le Opere Complete, v. 24, p. 117
!!!YOO: Rome, Italy: Fratelli Scalera
!!!END: 1992//
!!!EED: John Miller
!!!YEC: Copyright 2000, John Miller
!!!YEN: United States of America
!!!YEM: Rights to all derivative electronic formats reserved.
!!!YEM: Refer to licensing agreement for further details.
!!!YEM: This file must be accompanied by the licensing agreement.
!!!YEM: A copy of the licensing agreement may be found at http://www.music-cog.ohio-state.edu/HumdrumDatabases/Palestrina/license.txt
!!!EMD: converted to Humdrum by Bret Aarden
